icons/action/icon_convert_xl_black.svg

<svg xmlns="http://www.w3.org/2000/svg" width="36" height="36" viewBox="0 0 36 36"><g fill="none" fill-rule="evenodd"><path d="M0 0h36v36H0z"/><path fill="#0B1F35" d="M26.2 6h-6.5l3.6-3.6-.7-.7-4.9 4.9 4.9 4.9.7-.7L19.7 7h6.5c2.4 0 4.8 1.1 6.4 2.9l.8-.7C31.6 7.2 29 6 26.2 6zM12.9 24.6l-.7.7 3.6 3.6H9.2c-2.4 0-4.8-1.1-6.4-2.9l-.8.7c1.8 2 4.4 3.2 7.1 3.2h6.5L12 33.5l.7.7 4.9-4.9-4.7-4.7z" opacity=".3"/><path fill="#0B1F35" d="M12.513 20c.142 0 .284-.003.419-.008L15 19.805v-.694l-2.045.185c-.147.007-.294.01-.439.01h-.001c-4.028 0-7.446-2.619-8.344-6.306H13v-1H3.999l-.05-.43a10.848 10.848 0 0 1-.107-1.515A6.113 6.113 0 0 1 3.878 9H13V8H4.023l.032-.274C4.74 3.711 8.343.797 12.623.797c.11 0 .22.002.339.006L15 .988V.194L12.941.008A10.61 10.61 0 0 0 12.543 0C7.838 0 3.826 3.341 3.208 7.778L3.166 8H0v1h3.026a13.37 13.37 0 0 0 .078 2.532l.055.468H0v1h3.33c.951 4.089 4.715 7 9.183 7zm9.987 8.5h-1c.2 3 2.8 5.1 6.5 5.2V36h1v-2.3c3.3-.3 5.5-2.3 5.5-5.2 0-2.5-1.6-3.8-5.1-4.7l-.4-.1v-8c2.4.3 4 1.8 4.2 3.8h1c-.1-2.4-2.2-4.3-5.2-4.7V13h-1v1.7c-3.3 0-6 2.1-6 5 0 2.3 1.5 3.7 4.9 4.6l1.1.3v8.3c-3.1-.2-5.3-1.9-5.5-4.4zm4.8-5.2c-2.9-.7-4.3-1.8-4.3-3.6 0-2.3 2.2-4 5-4v7.8l-.7-.2zm1.8 1.5c3.1.8 4.4 1.9 4.4 3.8 0 2.2-1.8 3.8-4.5 4.1v-8l.1.1z"/></g></svg>

<?xml version="1.0" encoding="UTF-8"?>
<svg width="36px" height="36px" viewBox="0 0 36 36" version="1.1" xmlns="http://www.w3.org/2000/svg" xmlns:xlink="http://www.w3.org/1999/xlink">
    <!-- Generator: Sketch 48.2 (47327) - http://www.bohemiancoding.com/sketch -->
    <title>icon_convert_xl_black</title>
    <desc>Created with Sketch.</desc>
    <defs></defs>
    <g id="mobile" stroke="none" stroke-width="1" fill="none" fill-rule="evenodd" transform="translate(-128.000000, -369.000000)">
        <g id="Headings" transform="translate(64.000000, 77.000000)"></g>
        <g id="icon_tool_convert__xl__white" transform="translate(128.000000, 369.000000)">
            <g id="Layer_2">
                <rect id="ph_4_" x="0" y="0" width="36" height="36"></rect>
                <path d="M26.2,6 L19.7,6 L23.3,2.4 L22.6,1.7 L17.7,6.6 L22.6,11.5 L23.3,10.8 L19.7,7 L26.2,7 C28.6,7 31,8.1 32.6,9.9 L33.4,9.2 C31.6,7.2 29,6 26.2,6 L26.2,6 Z" id="Shape" fill="#0B1F35" opacity="0.3"></path>
                <path d="M12.9,24.6 L12.2,25.3 L15.8,28.9 L9.2,28.9 C6.8,28.9 4.4,27.8 2.8,26 L2,26.7 C3.8,28.7 6.4,29.9 9.1,29.9 L15.6,29.9 L12,33.5 L12.7,34.2 L17.6,29.3 L12.9,24.6 L12.9,24.6 Z" id="Shape" fill="#0B1F35" opacity="0.3"></path>
                <path d="M3,20 L4,20 L4,16 L9.8,16 L9.8,15 L4,15 L4,12 L8.3,12 C12,12 14,9.9 14,6.5 C14,3.1 12,1 8.3,1 L3,1 L3,11 L0,11 L0,12 L3,12 L3,15 L0,15 L0,16 L3,16 L3,20 L3,20 Z M4,2 L8.2,2 C11.4,2 13,3.6 13,6.5 C13,9.4 11.4,11 8.2,11 L4,11 L4,2 L4,2 Z" id="Shape" fill="#0B1F35"></path>
                <path d="M22.5,28.5 L21.5,28.5 C21.7,31.5 24.3,33.6 28,33.7 L28,36 L29,36 L29,33.7 C32.3,33.4 34.5,31.4 34.5,28.5 C34.5,26 32.9,24.7 29.4,23.8 L29,23.7 L29,15.7 C31.4,16 33,17.5 33.2,19.5 L34.2,19.5 C34.1,17.1 32,15.2 29,14.8 L29,13 L28,13 L28,14.7 C24.7,14.7 22,16.8 22,19.7 C22,22 23.5,23.4 26.9,24.3 L28,24.6 L28,32.9 C24.9,32.7 22.7,31 22.5,28.5 L22.5,28.5 Z M27.3,23.3 C24.4,22.6 23,21.5 23,19.7 C23,17.4 25.2,15.7 28,15.7 L28,15.7 L28,23.5 L27.3,23.3 L27.3,23.3 Z M29.1,24.8 C32.2,25.6 33.5,26.7 33.5,28.6 C33.5,30.8 31.7,32.4 29,32.7 L29,24.7 L29.1,24.8 L29.1,24.8 Z" id="Shape" fill="#0B1F35"></path>
            </g>
        </g>
    </g>
</svg>
